public/images/svg-decorator-blob-3.svg

<?xml version="1.0" encoding="utf-8"?>
<!-- Generator: Adobe Illustrator 25.0.0, SVG Export Plug-In . SVG Version: 6.00 Build 0)  -->
<svg version="1.1" id="Layer_1" xmlns="http://www.w3.org/2000/svg" xmlns:xlink="http://www.w3.org/1999/xlink" x="0px" y="0px"
	 viewBox="0 0 600 600" style="enable-background:new 0 0 600 600;" xml:space="preserve">
<style type="text/css">
	.st0{fill:#FFB4BC;}
</style>
<g transform="translate(300,300)">
	<path class="st0" d="M125-160.4c34.9,13.7,59.6,53.1,53.8,89.5c-5.7,36.5-41.8,70.1-50,118.2c-8.1,48.2,11.8,110.9-5,151.1
		S53.5,256.3,5.4,248.9s-90.8-40-118.1-76.8s-39.1-77.9-33.6-112.4c5.5-34.6,28.4-62.6,42.3-89.8s19-53.6,34.9-73.4
		c15.8-19.9,42.5-33.2,78.3-45.9C45.1-162,90.1-174,125-160.4z"/>
</g>
</svg>

<?xml version="1.0" standalone="no"?>
<svg
  width="600"
  height="600"
  viewBox="0 0 600 600"
  xmlns="http://www.w3.org/2000/svg"
>
  <g transform="translate(300,300)">
    <path d="M125,-160.4C159.9,-146.7,184.6,-107.3,178.8,-70.9C173.1,-34.4,137,-0.8,128.8,47.3C120.7,95.5,140.6,158.2,123.8,198.4C107,238.6,53.5,256.3,5.4,248.9C-42.7,241.5,-85.4,208.9,-112.7,172.1C-140,135.3,-151.8,94.2,-146.3,59.7C-140.8,25.1,-117.9,-2.9,-104,-30.1C-90.1,-57.3,-85,-83.7,-69.1,-103.5C-53.3,-123.4,-26.6,-136.7,9.2,-149.4C45.1,-162,90.1,-174,125,-160.4Z" fill="#FFB4BC" />
  </g>
</svg>
